icons/shield_us_wi_2.svg

<svg width="20" height="20" overflow="visible" xmlns="http://www.w3.org/2000/svg">
 <path style="fill:#fff;stroke:#000;stroke-width:1;stroke-miterlimit:4;stroke-dasharray:none;stroke-opacity:1;stroke-linejoin:miter" d="M 1.5 0.5 L 2.4257812 2.5683594 C 1.3197112 2.8267602 0.5 3.8129766 0.5 5 L 0.5 14 C 0.5 15.385 1.615 16.5 3 16.5 L 8.6582031 16.5 L 10 19.5 L 11.341797 16.5 L 17 16.5 C 18.385 16.5 19.5 15.385 19.5 14 L 19.5 5 C 19.5 3.8129766 18.680289 2.8267602 17.574219 2.5683594 L 18.5 0.5 L 1.5 0.5 z"/>
</svg>

<svg width="20" height="20" overflow="visible" xmlns="http://www.w3.org/2000/svg">
 <path style="fill:#fff;stroke:#000;stroke-width:1;stroke-miterlimit:4;stroke-dasharray:none;stroke-opacity:1;stroke-linejoin:miter" d="m1.5.5.926 2.068A2.492 2.492 0 0 0 .5 5v9c0 1.385 1.115 2.5 2.5 2.5h5.658l1.342 3 1.342-3H17c1.385 0 2.5-1.115 2.5-2.5V5c0-1.187-.82-2.173-1.926-2.432L18.5.5h-17z"/>
</svg>
